icons/evolvere-black-folders-vivid-dark/apps/64/pycharm.svg

<?xml version="1.0" encoding="UTF-8" standalone="no"?>
<!-- Created with Inkscape (http://www.inkscape.org/) -->

<svg
   xmlns:dc="http://purl.org/dc/elements/1.1/"
   xmlns:cc="http://creativecommons.org/ns#"
   xmlns:rdf="http://www.w3.org/1999/02/22-rdf-syntax-ns#"
   xmlns:svg="http://www.w3.org/2000/svg"
   xmlns="http://www.w3.org/2000/svg"
   xmlns:xlink="http://www.w3.org/1999/xlink"
   xmlns:sodipodi="http://sodipodi.sourceforge.net/DTD/sodipodi-0.dtd"
   xmlns:inkscape="http://www.inkscape.org/namespaces/inkscape"
   version="1.1"
   width="64"
   height="64"
   id="svg13094"
   inkscape:version="0.48.4 r9939"
   sodipodi:docname="pycharm.svg">
  <sodipodi:namedview
     pagecolor="#ffffff"
     bordercolor="#000000"
     borderopacity="0.09019608"
     objecttolerance="10"
     gridtolerance="10"
     guidetolerance="10"
     inkscape:pageopacity="0"
     inkscape:pageshadow="2"
     inkscape:window-width="1366"
     inkscape:window-height="706"
     id="namedview43"
     showgrid="true"
     inkscape:showpageshadow="false"
     showborder="true"
     inkscape:snap-bbox="true"
     inkscape:bbox-paths="true"
     inkscape:bbox-nodes="true"
     inkscape:snap-bbox-edge-midpoints="true"
     inkscape:snap-bbox-midpoints="true"
     inkscape:object-paths="true"
     inkscape:snap-intersection-paths="true"
     inkscape:object-nodes="true"
     inkscape:snap-smooth-nodes="true"
     inkscape:snap-midpoints="true"
     inkscape:snap-object-midpoints="true"
     inkscape:snap-center="true"
     showguides="true"
     inkscape:guide-bbox="true"
     inkscape:zoom="5.2149125"
     inkscape:cx="46.542259"
     inkscape:cy="24.310492"
     inkscape:window-x="-5"
     inkscape:window-y="25"
     inkscape:window-maximized="1"
     inkscape:current-layer="svg13094"
     inkscape:snap-global="false">
    <inkscape:grid
       type="xygrid"
       id="grid3020"
       empspacing="5"
       visible="true"
       enabled="true"
       snapvisiblegridlinesonly="true" />
    <sodipodi:guide
       orientation="1,0"
       position="0,24"
       id="guide3022" />
    <sodipodi:guide
       orientation="1,0"
       position="64,22"
       id="guide3024" />
    <sodipodi:guide
       orientation="0,1"
       position="32,64"
       id="guide3026" />
    <sodipodi:guide
       orientation="0,1"
       position="30,0"
       id="guide3028" />
    <sodipodi:guide
       orientation="0,1"
       position="32,60"
       id="guide3030" />
    <sodipodi:guide
       orientation="0,1"
       position="23,55"
       id="guide3032" />
    <sodipodi:guide
       orientation="1,0"
       position="7,49"
       id="guide3034" />
    <sodipodi:guide
       orientation="1,0"
       position="57,48"
       id="guide3036" />
    <sodipodi:guide
       orientation="0,1"
       position="31,5"
       id="guide3038" />
    <sodipodi:guide
       orientation="1,0"
       position="12,33.491525"
       id="guide3012" />
    <sodipodi:guide
       orientation="1,0"
       position="52,38.372881"
       id="guide3014" />
    <sodipodi:guide
       orientation="0,1"
       position="32,50"
       id="guide3016" />
    <sodipodi:guide
       orientation="0,1"
       position="29.288136,10"
       id="guide3018" />
    <sodipodi:guide
       orientation="1,0"
       position="32,64"
       id="guide3039" />
    <sodipodi:guide
       orientation="0,1"
       position="32,30"
       id="guide3043" />
  </sodipodi:namedview>
  <defs
     id="defs13096">
    <radialGradient
       r="32"
       fy="17.733047"
       fx="33.939781"
       cy="17.733047"
       cx="33.939781"
       gradientTransform="matrix(-2.0707936e-8,1.7529027,-1.6433463,-1.9413693e-8,61.141539,-40.493133)"
       gradientUnits="userSpaceOnUse"
       id="radialGradient3020-0"
       xlink:href="#linearGradient3094-5"
       inkscape:collect="always" />
    <linearGradient
       id="linearGradient3094-5">
      <stop
         offset="0"
         style="stop-color:#c7cdd6;stop-opacity:1"
         id="stop3096-4" />
      <stop
         offset="1"
         style="stop-color:#b6bdcd;stop-opacity:1"
         id="stop3104-1" />
    </linearGradient>
  </defs>
  <metadata
     id="metadata13099">
    <rdf:RDF>
      <cc:Work
         rdf:about="">
        <dc:format>image/svg+xml</dc:format>
        <dc:type
           rdf:resource="http://purl.org/dc/dcmitype/StillImage" />
        <dc:title />
      </cc:Work>
    </rdf:RDF>
  </metadata>
  <path
     style="color:#000000;fill:#c0c6d2;fill-opacity:1"
     inkscape:connector-curvature="0"
     d="M 2,0 0,1 v 3 58 l 2,2 h 60 l 2,-2 V 4 1 L 62,0 H 2"
     id="path11" />
  <path
     inkscape:connector-curvature="0"
     style="color:#000000;fill:url(#radialGradient3020-0);fill-opacity:1;fill-rule:nonzero;stroke:none;stroke-width:2.28571415000000000;marker:none;visibility:visible;display:inline;overflow:visible;enable-background:accumulate"
     d="m 0,4 0,30 0,28 2,2 30,0 30,0 2,-2 L 64,34 64,4 32,4 0,4 z"
     id="path6498" />
  <path
     id="path218844"
     d="M 2,0 0,1 0,4 32,4 64,4 64,1 62,0 32,0 2,0 z"
     style="color:#000000;fill:#e0e5eb;fill-opacity:1;fill-rule:nonzero;stroke:none;stroke-width:2.28571415;marker:none;visibility:visible;display:inline;overflow:visible;enable-background:accumulate"
     inkscape:connector-curvature="0" />
  <path
     id="path3830"
     d="M 2,0 0,1 0,4 32,4 64,4 64,1 62,0 32,0 2,0 z"
     style="color:#000000;fill:#ffffff;fill-opacity:0.62824013;fill-rule:nonzero;stroke:none;stroke-width:2.28571415;marker:none;visibility:visible;display:inline;overflow:visible;enable-background:accumulate"
     inkscape:connector-curvature="0" />
  <path
     style="color:#000000;fill:#ffffff;fill-opacity:0.77611941;fill-rule:nonzero;stroke-width:1;stroke-linecap:butt;stroke-linejoin:miter;stroke-miterlimit:4;stroke-opacity:1;stroke-dasharray:none;stroke-dashoffset:0;marker:none;visibility:visible;display:inline;overflow:visible;enable-background:accumulate"
     inkscape:connector-curvature="0"
     d="M 0,3 V 4 H 64 V 3 z"
     id="path19" />
  <path
     style="color:#000000;fill:#3f7aac;fill-opacity:0.15279673;fill-rule:nonzero;stroke-width:1;stroke-linecap:butt;stroke-linejoin:miter;stroke-miterlimit:4;stroke-opacity:1;stroke-dasharray:none;stroke-dashoffset:0;marker:none;visibility:visible;display:inline;overflow:visible;enable-background:accumulate"
     inkscape:connector-curvature="0"
     d="M 2,0 0,1 H 64 L 62,0 z"
     id="path21" />
  <path
     style="color:#000000;fill:#132534;fill-opacity:0.19900498"
     inkscape:connector-curvature="0"
     d="M 63,0.5 V 63 l 1,-1 V 1 z M 63,63 H 1 l 1,1 h 60 z"
     id="path23" />
  <path
     style="color:#000000;fill:#ffffff;fill-opacity:0.79399729;fill-rule:nonzero;stroke-width:1;stroke-linecap:butt;stroke-linejoin:miter;stroke-miterlimit:4;stroke-opacity:1;stroke-dasharray:none;stroke-dashoffset:0;marker:none;visibility:visible;display:inline;overflow:visible;enable-background:accumulate"
     inkscape:connector-curvature="0"
     d="m 0,1 v 61 l 1,1 V 1 z"
     id="path25" />
  <path
     style="color:#000000;fill:#132534;fill-opacity:0.19900498;fill-rule:nonzero;stroke-width:1;stroke-linecap:butt;stroke-linejoin:miter;stroke-miterlimit:4;stroke-opacity:1;stroke-dasharray:none;stroke-dashoffset:0;marker:none;visibility:visible;display:inline;overflow:visible;enable-background:accumulate"
     inkscape:connector-curvature="0"
     d="M 64,6 62,4 64,3 z"
     id="path29" />
  <path
     style="color:#000000;fill:#ffffff;fill-opacity:0.80491132;fill-rule:nonzero;stroke-width:1;stroke-linecap:butt;stroke-linejoin:miter;stroke-miterlimit:4;stroke-opacity:1;stroke-dasharray:none;stroke-dashoffset:0;marker:none;visibility:visible;display:inline;overflow:visible;enable-background:accumulate"
     inkscape:connector-curvature="0"
     d="M 0,3 V 6 L 2,4 z"
     id="path27" />
  <path
     inkscape:connector-curvature="0"
     style="color:#000000;fill:#df8c1e;fill-opacity:1;fill-rule:nonzero;stroke:none;stroke-width:2;marker:none;visibility:visible;display:inline;overflow:visible;enable-background:accumulate"
     d="m 28,14 c -8.836556,0 -16,7.163444 -16,16 l 0,24 10,0 0,-9.15625 C 23.855224,45.596002 25.874875,46 28,46 36.836556,46 44,38.836556 44,30 44,28.24874 43.707476,26.577095 43.1875,25 L 42.5,25 c -0.488371,0 -1.017857,0.06892 -1.53125,0.15625 -3.616378,0.615131 -6.274657,3.151126 -7.15625,6.40625 a 1.0001,1.0001 0 0 1 -0.09375,0.21875 1.0001,1.0001 0 0 1 -0.03125,0.0625 c -0.402975,1.244676 -1.203973,2.291091 -2.25,3.03125 -0.488421,0.345602 -1.012575,0.624339 -1.59375,0.8125 -0.288528,0.09763 -0.598774,0.199041 -0.90625,0.25 -0.06115,0.0095 -0.12575,-0.0076 -0.1875,0 C 28.501044,35.97046 28.258762,36 28,36 c -1.041107,0 -2.019593,-0.247909 -2.875,-0.71875 -0.170032,-0.09237 -0.309149,-0.204676 -0.46875,-0.3125 -0.791119,-0.535479 -1.475048,-1.253584 -1.9375,-2.09375 -0.0044,-0.0082 0.0044,-0.02304 0,-0.03125 C 22.255687,31.993749 22,31.031833 22,30 c 0,-0.179507 0.0072,-0.398995 0.03125,-0.625 0.0032,-0.03107 -0.0036,-0.06282 0,-0.09375 A 1.0001,1.0001 0 0 1 22.0625,29.25 c 0.0013,-0.01029 -0.0013,-0.02097 0,-0.03125 0.08572,-0.666349 0.27672,-1.295669 0.5625,-1.875 C 24.438858,21.985004 28.360836,17.467663 33.5625,15 31.826407,14.354524 29.960854,14 28,14 z m 8,2.15625 c -4.15996,1.522623 -7.579622,4.459754 -9.78125,8.125 C 26.782383,24.105942 27.37868,24 28,24 c 2.485281,0 4.6204,1.50276 5.53125,3.65625 1.616416,-2.30386 4.110481,-3.987243 7.125,-4.5 C 41.211229,23.061855 41.784505,23.006815 42.375,23 40.975903,20.134775 38.747007,17.747939 36,16.15625 z"
     id="path3988" />
  <path
     style="font-size:medium;font-style:normal;font-variant:normal;font-weight:normal;font-stretch:normal;text-indent:0;text-align:start;text-decoration:none;line-height:normal;letter-spacing:normal;word-spacing:normal;text-transform:none;direction:ltr;block-progression:tb;writing-mode:lr-tb;text-anchor:start;baseline-shift:baseline;color:#000000;fill:#42773c;fill-opacity:1;fill-rule:nonzero;stroke:none;stroke-width:2;marker:none;visibility:visible;display:inline;overflow:visible;enable-background:accumulate;font-family:Sans;-inkscape-font-specification:Sans"
     d="M 42.5 14 C 41.376115 14 40.264227 14.09279 39.15625 14.28125 C 31.056877 15.65892 24.890668 21.827713 23.0625 29.375 C 23.0571 29.39718 23.03655 29.41529 23.03125 29.4375 C 23.004708 29.61814 23 29.810158 23 30 C 23 32.761424 25.238576 35 28 35 C 30.302337 35 32.231455 33.430355 32.8125 31.3125 L 32.84375 31.3125 C 33.824965 27.689541 36.82091 24.835203 40.8125 24.15625 C 41.366483 24.06202 41.938053 24 42.5 24 L 47 24 A 5.0005 5.0005 0 0 0 51.5 21.3125 C 48.389716 22.559905 46.063262 21.504225 44.4375 19.96875 C 46.557388 20.66755 49.291481 20.671755 52.0625 19.3125 A 5.0005 5.0005 0 0 0 47 14 L 42.5 14 z M 46 16 C 46.552285 16 47 16.447715 47 17 C 47 17.552285 46.552285 18 46 18 C 45.447715 18 45 17.552285 45 17 C 45 16.447715 45.447715 16 46 16 z M 38.65625 43.25 C 35.740735 45.599222 32.035694 47 28 47 C 27.759122 47 27.51969 46.97867 27.28125 46.96875 C 31.04005 51.381711 36.587709 54 42.5 54 L 47 54 A 5.0005 5.0005 0 1 0 47 44 L 42.5 44 C 41.157248 44 39.852659 43.747344 38.65625 43.25 z "
     id="path3944" />
</svg>

<?xml version="1.0" encoding="UTF-8" standalone="no"?>
<!-- Created with Inkscape (http://www.inkscape.org/) -->

<svg
   xmlns:dc="http://purl.org/dc/elements/1.1/"
   xmlns:cc="http://creativecommons.org/ns#"
   xmlns:rdf="http://www.w3.org/1999/02/22-rdf-syntax-ns#"
   xmlns:svg="http://www.w3.org/2000/svg"
   xmlns="http://www.w3.org/2000/svg"
   xmlns:xlink="http://www.w3.org/1999/xlink"
   xmlns:sodipodi="http://sodipodi.sourceforge.net/DTD/sodipodi-0.dtd"
   xmlns:inkscape="http://www.inkscape.org/namespaces/inkscape"
   version="1.1"
   width="64"
   height="64"
   id="svg13094"
   inkscape:version="0.48.4 r9939"
   sodipodi:docname="pycharm.svg">
  <sodipodi:namedview
     pagecolor="#ffffff"
     bordercolor="#000000"
     borderopacity="0.09019608"
     objecttolerance="10"
     gridtolerance="10"
     guidetolerance="10"
     inkscape:pageopacity="0"
     inkscape:pageshadow="2"
     inkscape:window-width="1366"
     inkscape:window-height="706"
     id="namedview43"
     showgrid="false"
     inkscape:showpageshadow="false"
     showborder="true"
     inkscape:snap-bbox="true"
     inkscape:bbox-paths="true"
     inkscape:bbox-nodes="true"
     inkscape:snap-bbox-edge-midpoints="true"
     inkscape:snap-bbox-midpoints="true"
     inkscape:object-paths="true"
     inkscape:snap-intersection-paths="true"
     inkscape:object-nodes="true"
     inkscape:snap-smooth-nodes="true"
     inkscape:snap-midpoints="true"
     inkscape:snap-object-midpoints="true"
     inkscape:snap-center="true"
     showguides="false"
     inkscape:guide-bbox="true"
     inkscape:zoom="7.375"
     inkscape:cx="35.117378"
     inkscape:cy="28.783622"
     inkscape:window-x="-5"
     inkscape:window-y="25"
     inkscape:window-maximized="1"
     inkscape:current-layer="svg13094"
     inkscape:snap-global="true">
    <inkscape:grid
       type="xygrid"
       id="grid3020"
       empspacing="5"
       visible="true"
       enabled="true"
       snapvisiblegridlinesonly="true" />
    <sodipodi:guide
       orientation="1,0"
       position="0,24"
       id="guide3022" />
    <sodipodi:guide
       orientation="1,0"
       position="64,22"
       id="guide3024" />
    <sodipodi:guide
       orientation="0,1"
       position="32,64"
       id="guide3026" />
    <sodipodi:guide
       orientation="0,1"
       position="30,0"
       id="guide3028" />
    <sodipodi:guide
       orientation="0,1"
       position="32,60"
       id="guide3030" />
    <sodipodi:guide
       orientation="0,1"
       position="23,55"
       id="guide3032" />
    <sodipodi:guide
       orientation="1,0"
       position="7,49"
       id="guide3034" />
    <sodipodi:guide
       orientation="1,0"
       position="57,48"
       id="guide3036" />
    <sodipodi:guide
       orientation="0,1"
       position="31,5"
       id="guide3038" />
    <sodipodi:guide
       orientation="1,0"
       position="12,29"
       id="guide3012" />
    <sodipodi:guide
       orientation="1,0"
       position="52,38.372881"
       id="guide3014" />
    <sodipodi:guide
       orientation="0,1"
       position="32,50"
       id="guide3016" />
    <sodipodi:guide
       orientation="0,1"
       position="29.288136,10"
       id="guide3018" />
    <sodipodi:guide
       orientation="1,0"
       position="32,64"
       id="guide3039" />
    <sodipodi:guide
       orientation="0,1"
       position="32,30"
       id="guide3043" />
  </sodipodi:namedview>
  <defs
     id="defs13096">
    <radialGradient
       r="32"
       fy="17.733047"
       fx="33.939781"
       cy="17.733047"
       cx="33.939781"
       gradientTransform="matrix(-2.0707936e-8,1.7529027,-1.6433463,-1.9413693e-8,61.141539,-40.493133)"
       gradientUnits="userSpaceOnUse"
       id="radialGradient3020-5"
       xlink:href="#linearGradient3094-8"
       inkscape:collect="always" />
    <linearGradient
       id="linearGradient3094-8">
      <stop
         offset="0"
         style="stop-color:#bdc4cf;stop-opacity:1;"
         id="stop3096-3" />
      <stop
         offset="1"
         style="stop-color:#abb1c1;stop-opacity:1"
         id="stop3104-5" />
    </linearGradient>
  </defs>
  <metadata
     id="metadata13099">
    <rdf:RDF>
      <cc:Work
         rdf:about="">
        <dc:format>image/svg+xml</dc:format>
        <dc:type
           rdf:resource="http://purl.org/dc/dcmitype/StillImage" />
        <dc:title />
      </cc:Work>
    </rdf:RDF>
  </metadata>
  <path
     style="color:#000000;fill:#b6bcc9;fill-opacity:1"
     inkscape:connector-curvature="0"
     d="M 2,0 0,1 v 3 58 l 2,2 h 60 l 2,-2 V 4 1 L 62,0 H 2"
     id="path11" />
  <path
     inkscape:connector-curvature="0"
     style="color:#000000;fill:url(#radialGradient3020-5);fill-opacity:1;fill-rule:nonzero;stroke:none;stroke-width:2.28571415000000000;marker:none;visibility:visible;display:inline;overflow:visible;enable-background:accumulate"
     d="m 0,4 0,30 0,28 2,2 30,0 30,0 2,-2 L 64,34 64,4 32,4 0,4 z"
     id="path6498" />
  <path
     id="path218844"
     d="M 2,0 0,1 0,4 32,4 64,4 64,1 62,0 32,0 2,0 z"
     style="color:#000000;fill:#e0e5eb;fill-opacity:1;fill-rule:nonzero;stroke:none;stroke-width:2.28571415;marker:none;visibility:visible;display:inline;overflow:visible;enable-background:accumulate"
     inkscape:connector-curvature="0" />
  <path
     inkscape:connector-curvature="0"
     style="color:#000000;fill:#e4e8ec;fill-opacity:1;fill-rule:nonzero;stroke:none;stroke-width:1;marker:none;visibility:visible;display:inline;overflow:visible;enable-background:accumulate"
     d="M 2,0 0,1 0,4 32,4 64,4 64,1 62,0 32,0 2,0 z"
     id="path6502" />
  <path
     style="color:#000000;fill:#ffffff;fill-opacity:0.41791046;fill-rule:nonzero;stroke-width:1;stroke-linecap:butt;stroke-linejoin:miter;stroke-miterlimit:4;stroke-opacity:1;stroke-dasharray:none;stroke-dashoffset:0;marker:none;visibility:visible;display:inline;overflow:visible;enable-background:accumulate"
     inkscape:connector-curvature="0"
     d="M 0,3 V 4 H 64 V 3 z"
     id="path19" />
  <path
     style="color:#000000;fill:#60778b;fill-opacity:0.09292351;fill-rule:nonzero;stroke-width:1;stroke-linecap:butt;stroke-linejoin:miter;stroke-miterlimit:4;stroke-opacity:1;stroke-dasharray:none;stroke-dashoffset:0;marker:none;visibility:visible;display:inline;overflow:visible;enable-background:accumulate"
     inkscape:connector-curvature="0"
     d="M 2,0 0,1 H 64 L 62,0 z"
     id="path21" />
  <path
     style="color:#000000;fill:#1b242c;fill-opacity:0.13894971"
     inkscape:connector-curvature="0"
     d="M 63,0.5 V 63 l 1,-1 V 1 z M 63,63 H 1 l 1,1 h 60 z"
     id="path23" />
  <path
     style="color:#000000;fill:#f0f4f5;fill-opacity:0.56218904;fill-rule:nonzero;stroke-width:1;stroke-linecap:butt;stroke-linejoin:miter;stroke-miterlimit:4;stroke-opacity:1;stroke-dasharray:none;stroke-dashoffset:0;marker:none;visibility:visible;display:inline;overflow:visible;enable-background:accumulate"
     inkscape:connector-curvature="0"
     d="m 0,1 v 61 l 1,1 V 1 z"
     id="path25" />
  <path
     style="color:#000000;fill:#f0f4f5;fill-opacity:0.69693655;fill-rule:nonzero;stroke-width:1;stroke-linecap:butt;stroke-linejoin:miter;stroke-miterlimit:4;stroke-opacity:1;stroke-dasharray:none;stroke-dashoffset:0;marker:none;visibility:visible;display:inline;overflow:visible;enable-background:accumulate"
     inkscape:connector-curvature="0"
     d="M 0,3 V 6 L 2,4 z"
     id="path27" />
  <path
     style="color:#000000;fill:#1b242c;fill-opacity:0.13894971;fill-rule:nonzero;stroke-width:1;stroke-linecap:butt;stroke-linejoin:miter;stroke-miterlimit:4;stroke-opacity:1;stroke-dasharray:none;stroke-dashoffset:0;marker:none;visibility:visible;display:inline;overflow:visible;enable-background:accumulate"
     inkscape:connector-curvature="0"
     d="M 64,6 62,4 64,3 z"
     id="path29" />
  <path
     style="color:#000000;fill:#cb8f3f;fill-opacity:1;fill-rule:nonzero;stroke:none;stroke-width:2;marker:none;visibility:visible;display:inline;overflow:visible;enable-background:accumulate"
     d="M 28 14 C 19.163444 14 12 21.163444 12 30 L 12 54 L 22 54 L 22 44.84375 C 23.855224 45.596002 25.874875 46 28 46 C 36.836556 46 44 38.836556 44 30 C 44 28.24874 43.707476 26.577095 43.1875 25 L 42.5 25 C 42.011629 25 41.482143 25.068923 40.96875 25.15625 C 37.352372 25.771381 34.694093 28.307376 33.8125 31.5625 A 1.0001 1.0001 0 0 1 33.71875 31.78125 A 1.0001 1.0001 0 0 1 33.6875 31.84375 C 33.284525 33.088426 32.483527 34.134841 31.4375 34.875 C 30.949079 35.220602 30.424925 35.499339 29.84375 35.6875 C 29.555222 35.785129 29.244976 35.886541 28.9375 35.9375 C 28.876345 35.94698 28.81175 35.929881 28.75 35.9375 C 28.501044 35.97046 28.258762 36 28 36 C 26.958893 36 25.980407 35.752091 25.125 35.28125 C 24.954968 35.188883 24.815851 35.076574 24.65625 34.96875 C 23.865131 34.433271 23.181202 33.715166 22.71875 32.875 C 22.714302 32.866811 22.723161 32.851961 22.71875 32.84375 C 22.255687 31.993749 22 31.031833 22 30 C 22 29.820493 22.007164 29.601005 22.03125 29.375 C 22.034406 29.343927 22.027622 29.312181 22.03125 29.28125 A 1.0001 1.0001 0 0 1 22.0625 29.25 C 22.06377 29.239708 22.061178 29.229026 22.0625 29.21875 C 22.148219 28.552401 22.33922 27.923081 22.625 27.34375 C 24.438858 21.985004 28.360836 17.467663 33.5625 15 C 31.826407 14.354524 29.960854 14 28 14 z M 36 16.15625 C 31.84004 17.678873 28.420378 20.616004 26.21875 24.28125 C 26.782383 24.105942 27.37868 24 28 24 C 30.485281 24 32.6204 25.50276 33.53125 27.65625 C 35.147666 25.35239 37.641731 23.669007 40.65625 23.15625 C 41.211229 23.061855 41.784505 23.006815 42.375 23 C 40.975903 20.134775 38.747007 17.747939 36 16.15625 z "
     id="path3988" />
  <path
     style="font-size:medium;font-style:normal;font-variant:normal;font-weight:normal;font-stretch:normal;text-indent:0;text-align:start;text-decoration:none;line-height:normal;letter-spacing:normal;word-spacing:normal;text-transform:none;direction:ltr;block-progression:tb;writing-mode:lr-tb;text-anchor:start;baseline-shift:baseline;color:#000000;fill:#507a4c;fill-opacity:1;stroke:none;stroke-width:2;marker:none;visibility:visible;display:inline;overflow:visible;enable-background:accumulate;font-family:Sans;-inkscape-font-specification:Sans;fill-rule:nonzero"
     d="M 38.65625 43.25 C 35.740735 45.599222 32.035694 47 28 47 C 27.759122 47 27.51969 46.978671 27.28125 46.96875 C 31.04005 51.381711 36.587709 54 42.5 54 L 47 54 A 5.0005 5.0005 0 1 0 47 44 L 42.5 44 C 41.157248 44 39.852659 43.747344 38.65625 43.25 z "
     id="path3944" />
  <path
     id="path4040"
     d="m 42.5,14 c -1.123885,0 -2.235773,0.09279 -3.34375,0.28125 -8.099373,1.37767 -14.265582,7.546463 -16.09375,15.09375 -0.0054,0.02218 -0.02595,0.04029 -0.03125,0.0625 C 23.004708,29.61814 23,29.810158 23,30 c 0,2.761424 2.238576,5 5,5 2.302337,0 4.231455,-1.569645 4.8125,-3.6875 l 0.03125,0 C 33.824965,27.689541 36.82091,24.835203 40.8125,24.15625 41.366483,24.062019 41.938053,24 42.5,24 l 4.5,0 a 5.0005,5.0005 0 0 0 4.5,-2.6875 c -3.110284,1.247405 -5.436738,0.191725 -7.0625,-1.34375 2.119888,0.6988 4.853981,0.703005 7.625,-0.65625 A 5.0005,5.0005 0 0 0 47,14 l -4.5,0 z m 3.5,2 c 0.552285,0 1,0.447715 1,1 0,0.552285 -0.447715,1 -1,1 -0.552285,0 -1,-0.447715 -1,-1 0,-0.552285 0.447715,-1 1,-1 z"
     style="font-size:medium;font-style:normal;font-variant:normal;font-weight:normal;font-stretch:normal;text-indent:0;text-align:start;text-decoration:none;line-height:normal;letter-spacing:normal;word-spacing:normal;text-transform:none;direction:ltr;block-progression:tb;writing-mode:lr-tb;text-anchor:start;baseline-shift:baseline;color:#000000;fill:#507a4c;fill-opacity:1;stroke:none;stroke-width:2;marker:none;visibility:visible;display:inline;overflow:visible;enable-background:accumulate;font-family:Sans;-inkscape-font-specification:Sans;fill-rule:nonzero"
     inkscape:connector-curvature="0" />
</svg>
